X:30
T:Crop the Croppies
B:Preston's Twenty four COUNTRY DANCES for the Year 1801
L:1/8
M:C
O:England
Z:Richard Robinson 
%%Dancenotes:Hands 4 around back again down the middle up again & Allemande
%%Page:3
%%TUNEURL: http://www.leeds.ac.uk/music/Info/RRTuneBk/gettune/00001191.html
%%ID:00001191
K:F
f>cA>c f>cA>c | fgef g2g2 | f>ga>a bagf | (efge) f2F2 ::
c2cA c2cA | dcBA B2G2 | B2BG B2BG | cBAG A2F2 ||
%%newpage
%%Page:4
